svgs/light/truck-tow.svg

<svg xmlns="http://www.w3.org/2000/svg" viewBox="0 0 640 512"><!--! Font Awesome Pro 6.4.2 by @fontawesome - https://fontawesome.com License - https://fontawesome.com/license (Commercial License) Copyright 2023 Fonticons, Inc. --><path d="M96 64V176c0 26.5-21.5 48-48 48s-48-21.5-48-48V160c0-8.8 7.2-16 16-16s16 7.2 16 16v16c0 8.8 7.2 16 16 16s16-7.2 16-16V32C64 20.2 70.4 9.8 80 4.3C84.7 1.6 90.2 0 96 0h3.8 45.9c9.1 0 17.8 3.9 23.9 10.7L384 252V144c0-26.5 21.5-48 48-48h56.5c19.8 0 38.4 9.1 50.5 24.7l90.8 116.8c6.6 8.4 10.1 18.8 10.1 29.5V368c0 26.5-21.5 48-48 48H576c0 53-43 96-96 96s-96-43-96-96H256c0 53-43 96-96 96s-96-43-96-96H48c-26.5 0-48-21.5-48-48V304c0-26.5 21.5-48 48-48H192L96 64zM250.5 384H389.5c13.2-37.3 48.7-64 90.5-64s77.4 26.7 90.5 64H592c8.8 0 16-7.2 16-16V288H416 384 373.2 208 48c-8.8 0-16 7.2-16 16v64c0 8.8 7.2 16 16 16H69.5c13.2-37.3 48.7-64 90.5-64s77.4 26.7 90.5 64zM416 416a64 64 0 1 0 128 0 64 64 0 1 0 -128 0zm97.8-275.6c-6.1-7.8-15.4-12.4-25.3-12.4H432c-8.8 0-16 7.2-16 16V256H603.7L513.8 140.4zM145.6 32l-29.9 0 112 224h117L145.6 32zM224 416A64 64 0 1 0 96 416a64 64 0 1 0 128 0z"/></svg>

<svg xmlns="http://www.w3.org/2000/svg" viewBox="0 0 640 512"><!--! Font Awesome Pro 6.1.1 by @fontawesome - https://fontawesome.com License - https://fontawesome.com/license (Commercial License) Copyright 2022 Fonticons, Inc. --><path d="M96 64V176C96 202.5 74.51 224 48 224C21.49 224 .0003 202.5 .0003 176V160C.0003 151.2 7.164 144 16 144C24.84 144 32 151.2 32 160V176C32 184.8 39.16 192 48 192C56.84 192 64 184.8 64 176V32C64 20.16 70.44 9.814 80 4.281C84.71 1.558 90.17 0 96 0H145.6C154.8 0 163.5 3.909 169.5 10.74L384 252V144C384 117.5 405.5 96 432 96H488.5C508.3 96 526.9 105.1 539 120.7L629.9 237.5C636.4 245.9 640 256.3 640 266.1V368C640 394.5 618.5 416 592 416H576C576 469 533 512 480 512C426.1 512 384 469 384 416H256C256 469 213 512 160 512C106.1 512 64 469 64 416H48C21.49 416 0 394.5 0 368V304C0 277.5 21.49 256 48 256H192L96 64zM250.5 384H389.5C402.6 346.7 438.2 320 480 320C521.8 320 557.4 346.7 570.5 384H592C600.8 384 608 376.8 608 368V288H48C39.16 288 32 295.2 32 304V368C32 376.8 39.16 384 48 384H69.46C82.64 346.7 118.2 320 160 320C201.8 320 237.4 346.7 250.5 384H250.5zM416 416C416 451.3 444.7 480 480 480C515.3 480 544 451.3 544 416C544 380.7 515.3 352 480 352C444.7 352 416 380.7 416 416zM488.5 128H432C423.2 128 416 135.2 416 144V256H603.7L513.8 140.4C507.7 132.6 498.4 128 488.5 128H488.5zM115.8 32L227.8 256H344.7L145.6 32H115.8zM160 352C124.7 352 96 380.7 96 416C96 451.3 124.7 480 160 480C195.3 480 224 451.3 224 416C224 380.7 195.3 352 160 352z"/></svg>
